src/components/nav/img/logo-white.svg

<svg width="775" height="237" viewBox="0 0 775 237" fill="none" xmlns="http://www.w3.org/2000/svg">
<path d="M225.05 118.593C225.05 177.213 177.528 224.734 118.91 224.734C60.2897 224.734 12.7697 177.213 12.7697 118.593C12.7697 59.9728 60.2897 12.4528 118.91 12.4528C177.528 12.4528 225.05 59.9728 225.05 118.593Z" stroke="white" stroke-width="23.736" stroke-miterlimit="10" stroke-dasharray="1.83 5.5"/>
<path d="M159.453 21.393L158.815 21.885L101.839 111.52L79.9948 217.009L135.981 125.144L159.453 21.393Z" fill="white"/>
<path d="M135.981 125.143L159.453 21.3924L158.814 21.8844L101.838 111.52" fill="white"/>
<path d="M127.432 119.748C127.432 124.644 123.463 128.612 118.568 128.612C113.672 128.612 109.703 124.644 109.703 119.748C109.703 114.852 113.672 110.884 118.568 110.884C123.463 110.884 127.432 114.852 127.432 119.748Z" fill="#2F6BB4"/>
<path d="M267.288 41.2771H310.355V50.9837H278.315V67.2864H309.696V76.9931H278.315V94.4277H310.355V104.134H267.288V41.2771Z" fill="white"/>
<path d="M350.219 75.6743C350.219 68.6063 346.637 66.2503 341.079 66.2503C335.989 66.2503 331.655 69.2649 329.392 72.3756V104.134H319.497V58.6169H329.392V64.8369C332.408 61.2556 338.251 57.4863 345.413 57.4863C355.213 57.4863 360.113 62.7636 360.113 72.0929V104.134H350.219V75.6743Z" fill="white"/>
<path d="M378.49 77.6528H404.123C403.934 72.2808 400.259 65.5901 391.306 65.5901C382.824 65.5901 378.962 72.0928 378.49 77.6528ZM391.306 57.4861C404.97 57.4861 413.735 67.9461 413.735 82.2701V84.6261H378.584C379.338 91.5061 384.52 97.1594 393.096 97.1594C397.526 97.1594 402.803 95.3701 406.008 92.1661L410.531 98.6674C406.008 103.003 399.316 105.265 392.06 105.265C378.396 105.265 368.218 95.7461 368.218 81.3274C368.218 68.1354 377.83 57.4861 391.306 57.4861Z" fill="white"/>
<path d="M421.652 58.6169H431.547V65.3076C434.939 60.9729 440.404 57.5809 446.343 57.5809V67.3809C445.494 67.1929 444.458 67.0983 443.232 67.0983C439.086 67.0983 433.526 69.9249 431.547 73.1289V104.134H421.652V58.6169Z" fill="white"/>
<path d="M484.414 72.3755C482.246 68.9835 477.345 66.2502 472.727 66.2502C464.906 66.2502 459.911 72.0929 459.911 80.8569C459.911 89.6209 464.906 95.4635 472.727 95.4635C477.345 95.4635 482.246 92.7315 484.414 89.3382V72.3755ZM456.519 108.657C460.194 112.898 464.906 114.5 470.938 114.5C477.441 114.5 484.414 111.485 484.414 102.154V96.6889C480.927 101.213 475.743 104.229 469.806 104.229C458.215 104.229 449.639 95.8409 449.639 80.8569C449.639 66.1555 458.121 57.4862 469.806 57.4862C475.554 57.4862 480.738 60.1249 484.414 64.9315V58.6169H494.309V101.778C494.309 118.176 482.153 122.605 470.938 122.605C463.21 122.605 457.461 120.909 451.901 115.82L456.519 108.657Z" fill="white"/>
<path d="M508.539 113.84C511.648 113.84 513.722 112.898 515.04 109.883L517.303 104.699L498.643 58.6176H509.198L522.486 92.7309L535.774 58.6176H546.422L524.464 112.332C521.355 120.06 515.89 122.51 508.822 122.606C507.407 122.606 504.675 122.322 503.262 121.946L504.77 113.087C505.806 113.558 507.407 113.84 508.539 113.84Z" fill="white"/>
<path d="M599.478 50.9835H584.399V70.9622H599.478C605.696 70.9622 610.22 67.0035 610.22 60.9728C610.22 54.9408 605.696 50.9835 599.478 50.9835ZM573.374 41.2768H600.986C614.178 41.2768 621.528 50.3235 621.528 60.9728C621.528 71.6222 614.084 80.6688 600.986 80.6688H584.399V104.134H573.374V41.2768Z" fill="white"/>
<path d="M660.827 81.3278C660.827 73.3185 656.115 66.2491 647.632 66.2491C639.245 66.2491 634.533 73.3185 634.533 81.3278C634.533 89.4331 639.245 96.4998 647.632 96.4998C656.115 96.4998 660.827 89.4331 660.827 81.3278ZM624.261 81.3278C624.261 68.3238 633.215 57.4865 647.632 57.4865C662.24 57.4865 671.099 68.3238 671.099 81.3278C671.099 94.4278 662.24 105.265 647.632 105.265C633.215 105.265 624.261 94.4278 624.261 81.3278Z" fill="white"/>
<path d="M679.204 58.6165H689.099V104.134H679.204V58.6165ZM677.979 44.9525C677.979 41.5591 680.805 38.8271 684.104 38.8271C687.496 38.8271 690.229 41.5591 690.229 44.9525C690.229 48.3445 687.496 51.0778 684.104 51.0778C680.805 51.0778 677.979 48.3445 677.979 44.9525Z" fill="white"/>
<path d="M730.753 75.6743C730.753 68.6063 727.17 66.2503 721.611 66.2503C716.522 66.2503 712.187 69.2649 709.926 72.3756V104.134H700.03V58.6169H709.926V64.8369C712.942 61.2556 718.783 57.4863 725.947 57.4863C735.747 57.4863 740.647 62.7636 740.647 72.0929V104.134H730.753V75.6743Z" fill="white"/>
<path d="M753.557 93.5792V67.2872H746.019V58.6165H753.557V46.1779H763.453V58.6165H772.689V67.2872H763.453V91.1285C763.453 94.2392 764.961 96.5005 767.788 96.5005C769.673 96.5005 771.464 95.7459 772.217 94.8979L774.573 102.343C772.783 104.039 769.861 105.265 765.244 105.265C757.611 105.265 753.557 101.118 753.557 93.5792Z" fill="white"/>
<path d="M264.462 163.503C264.462 144.184 278.88 130.991 296.974 130.991C310.167 130.991 317.99 137.587 322.7 145.127L313.276 149.932C310.262 144.75 304.23 140.792 296.974 140.792C285.006 140.792 275.77 150.31 275.77 163.503C275.77 176.698 285.006 186.215 296.974 186.215C304.23 186.215 310.262 182.351 313.276 177.074L322.7 181.879C317.895 189.419 310.167 196.015 296.974 196.015C278.88 196.015 264.462 182.822 264.462 163.503Z" fill="white"/>
<path d="M363.129 172.079C363.129 164.068 358.417 157 349.936 157C341.549 157 336.837 164.068 336.837 172.079C336.837 180.184 341.549 187.252 349.936 187.252C358.417 187.252 363.129 180.184 363.129 172.079ZM326.565 172.079C326.565 159.075 335.518 148.236 349.936 148.236C364.544 148.236 373.401 159.075 373.401 172.079C373.401 185.177 364.544 196.015 349.936 196.015C335.518 196.015 326.565 185.177 326.565 172.079Z" fill="white"/>
<path d="M412.228 166.425C412.228 159.357 408.647 157.001 403.088 157.001C397.999 157.001 393.663 160.016 391.401 163.126V194.885H381.507V149.368H391.401V155.588C394.417 152.006 400.26 148.236 407.423 148.236C417.223 148.236 422.124 153.513 422.124 162.842V194.885H412.228V166.425Z" fill="white"/>
<path d="M433.62 181.786C436.824 185.084 443.138 188.194 449.074 188.194C455.012 188.194 458.028 186.027 458.028 182.634C458.028 178.676 453.221 177.262 447.661 176.036C439.84 174.34 430.509 172.267 430.509 162.091C430.509 154.646 436.918 148.236 448.416 148.236C456.142 148.236 461.985 150.97 466.132 154.646L461.985 161.619C459.253 158.508 454.162 156.152 448.509 156.152C443.325 156.152 440.028 158.036 440.028 161.242C440.028 164.728 444.55 165.954 449.924 167.179C457.838 168.874 467.545 171.138 467.545 181.879C467.545 189.89 460.854 196.015 448.602 196.015C440.876 196.015 433.809 193.566 429.096 188.947L433.62 181.786Z" fill="white"/>
<path d="M506.371 188.853C503.072 192.529 497.418 196.015 490.256 196.015C480.455 196.015 475.65 190.927 475.65 181.597V149.368H485.544V178.016C485.544 185.084 489.124 187.252 494.684 187.252C499.679 187.252 504.014 184.424 506.371 181.315V149.368H516.266V194.884H506.371V188.853Z" fill="white"/>
<path d="M527.196 132.027H537.092V194.885H527.196V132.027Z" fill="white"/>
<path d="M550.003 184.33V158.037H542.464V149.367H550.003V136.927H559.899V149.367H569.135V158.037H559.899V181.879C559.899 184.99 561.407 187.251 564.233 187.251C566.119 187.251 567.909 186.498 568.663 185.649L571.019 193.094C569.228 194.791 566.307 196.015 561.689 196.015C554.056 196.015 550.003 191.869 550.003 184.33Z" fill="white"/>
<path d="M576.201 149.367H586.096V194.885H576.201V149.367ZM574.976 135.702C574.976 132.31 577.804 129.578 581.101 129.578C584.493 129.578 587.227 132.31 587.227 135.702C587.227 139.095 584.493 141.828 581.101 141.828C577.804 141.828 574.976 139.095 574.976 135.702Z" fill="white"/>
<path d="M627.75 166.425C627.75 159.357 624.167 157.001 618.609 157.001C613.519 157.001 609.185 160.016 606.923 163.126V194.885H597.027V149.368H606.923V155.588C609.939 152.006 615.781 148.236 622.945 148.236C632.745 148.236 637.645 153.513 637.645 162.842V194.885H627.75V166.425Z" fill="white"/>
<path d="M680.523 163.127C678.355 159.733 673.454 157 668.837 157C661.015 157 656.021 162.843 656.021 171.607C656.021 180.372 661.015 186.215 668.837 186.215C673.454 186.215 678.355 183.483 680.523 180.089V163.127ZM652.629 199.408C656.303 203.649 661.015 205.251 667.047 205.251C673.55 205.251 680.523 202.235 680.523 192.905V187.439C677.037 191.963 671.853 194.979 665.915 194.979C654.325 194.979 645.749 186.592 645.749 171.607C645.749 156.907 654.23 148.236 665.915 148.236C671.663 148.236 676.847 150.876 680.523 155.681V149.368H690.418V192.529C690.418 208.927 678.262 213.356 667.047 213.356C659.319 213.356 653.57 211.659 648.01 206.569L652.629 199.408Z" fill="white"/>
</svg>

<svg xmlns="http://www.w3.org/2000/svg" width="775" height="237" fill="none"><path stroke="#fff" stroke-dasharray="1.83 5.5" stroke-miterlimit="10" stroke-width="23.736" d="M225.05 118.593c0 58.62-47.522 106.141-106.14 106.141-58.62 0-106.14-47.521-106.14-106.141 0-58.62 47.52-106.14 106.14-106.14 58.618 0 106.14 47.52 106.14 106.14Z"/><path fill="#fff" d="m159.453 21.393-.638.492-56.976 89.635-21.844 105.489 55.986-91.865 23.472-103.751Z"/><path fill="#fff" d="m135.981 125.143 23.472-103.75-.639.491-56.976 89.636"/><path fill="#fff" d="M127.432 119.748a8.864 8.864 0 0 1-8.864 8.864 8.864 8.864 0 1 1 0-17.728 8.864 8.864 0 0 1 8.864 8.864ZM267.288 41.277h43.067v9.707h-32.04v16.302h31.381v9.707h-31.381v17.435h32.04v9.706h-43.067V41.277ZM350.219 75.674c0-7.068-3.582-9.424-9.14-9.424-5.09 0-9.424 3.015-11.687 6.126v31.758h-9.895V58.617h9.895v6.22c3.016-3.581 8.859-7.35 16.021-7.35 9.8 0 14.7 5.277 14.7 14.606v32.041h-9.894v-28.46ZM378.49 77.653h25.633c-.189-5.372-3.864-12.063-12.817-12.063-8.482 0-12.344 6.503-12.816 12.063Zm12.816-20.167c13.664 0 22.429 10.46 22.429 24.784v2.356h-35.151c.754 6.88 5.936 12.533 14.512 12.533 4.43 0 9.707-1.789 12.912-4.993l4.523 6.501c-4.523 4.336-11.215 6.598-18.471 6.598-13.664 0-23.842-9.519-23.842-23.938 0-13.192 9.612-23.84 23.088-23.84ZM421.652 58.617h9.895v6.69c3.392-4.334 8.857-7.726 14.796-7.726v9.8c-.849-.188-1.885-.283-3.111-.283-4.146 0-9.706 2.827-11.685 6.03v31.006h-9.895V58.617ZM484.414 72.376c-2.168-3.392-7.069-6.126-11.687-6.126-7.821 0-12.816 5.843-12.816 14.607s4.995 14.606 12.816 14.606c4.618 0 9.519-2.731 11.687-6.125V72.376Zm-27.895 36.281c3.675 4.241 8.387 5.843 14.419 5.843 6.503 0 13.476-3.015 13.476-12.346v-5.465c-3.487 4.524-8.671 7.54-14.608 7.54-11.591 0-20.167-8.388-20.167-23.372 0-14.701 8.482-23.37 20.167-23.37 5.748 0 10.932 2.638 14.608 7.444v-6.314h9.895v43.161c0 16.398-12.156 20.827-23.371 20.827-7.728 0-13.477-1.696-19.037-6.785l4.618-7.163ZM508.539 113.84c3.109 0 5.183-.942 6.501-3.957l2.263-5.184-18.66-46.081h10.555l13.288 34.113 13.288-34.113h10.648l-21.958 53.714c-3.109 7.728-8.574 10.178-15.642 10.274-1.415 0-4.147-.284-5.56-.66l1.508-8.859c1.036.471 2.637.753 3.769.753ZM599.478 50.983h-15.079v19.98h15.079c6.218 0 10.742-3.96 10.742-9.99 0-6.032-4.524-9.99-10.742-9.99Zm-26.104-9.706h27.612c13.192 0 20.542 9.047 20.542 19.696 0 10.65-7.444 19.696-20.542 19.696h-16.587v23.465h-11.025V41.277ZM660.827 81.328c0-8.01-4.712-15.079-13.195-15.079-8.387 0-13.099 7.07-13.099 15.079 0 8.105 4.712 15.172 13.099 15.172 8.483 0 13.195-7.067 13.195-15.172Zm-36.566 0c0-13.004 8.954-23.842 23.371-23.842 14.608 0 23.467 10.838 23.467 23.842 0 13.1-8.859 23.937-23.467 23.937-14.417 0-23.371-10.837-23.371-23.937ZM679.204 58.617h9.895v45.517h-9.895V58.617Zm-1.225-13.664c0-3.394 2.826-6.126 6.125-6.126a6.113 6.113 0 0 1 6.125 6.126 6.113 6.113 0 0 1-6.125 6.125c-3.299 0-6.125-2.734-6.125-6.126ZM730.753 75.674c0-7.068-3.583-9.424-9.142-9.424-5.089 0-9.424 3.015-11.685 6.126v31.758h-9.896V58.617h9.896v6.22c3.016-3.581 8.857-7.35 16.021-7.35 9.8 0 14.7 5.277 14.7 14.606v32.041h-9.894v-28.46ZM753.557 93.58V67.286h-7.538v-8.67h7.538v-12.44h9.896v12.44h9.236v8.67h-9.236v23.841c0 3.111 1.508 5.373 4.335 5.373 1.885 0 3.676-.755 4.429-1.603l2.356 7.445c-1.79 1.696-4.712 2.922-9.329 2.922-7.633 0-11.687-4.147-11.687-11.686ZM264.462 163.503c0-19.319 14.418-32.512 32.512-32.512 13.193 0 21.016 6.596 25.726 14.136l-9.424 4.805c-3.014-5.182-9.046-9.14-16.302-9.14-11.968 0-21.204 9.518-21.204 22.711 0 13.195 9.236 22.712 21.204 22.712 7.256 0 13.288-3.864 16.302-9.141l9.424 4.805c-4.805 7.54-12.533 14.136-25.726 14.136-18.094 0-32.512-13.193-32.512-32.512ZM363.129 172.079c0-8.011-4.712-15.079-13.193-15.079-8.387 0-13.099 7.068-13.099 15.079 0 8.105 4.712 15.173 13.099 15.173 8.481 0 13.193-7.068 13.193-15.173Zm-36.564 0c0-13.004 8.953-23.843 23.371-23.843 14.608 0 23.465 10.839 23.465 23.843 0 13.098-8.857 23.936-23.465 23.936-14.418 0-23.371-10.838-23.371-23.936ZM412.228 166.425c0-7.068-3.581-9.424-9.14-9.424-5.089 0-9.425 3.015-11.687 6.125v31.759h-9.894v-45.517h9.894v6.22c3.016-3.582 8.859-7.352 16.022-7.352 9.8 0 14.701 5.277 14.701 14.606v32.043h-9.896v-28.46ZM433.62 181.786c3.204 3.298 9.518 6.408 15.454 6.408 5.938 0 8.954-2.167 8.954-5.56 0-3.958-4.807-5.372-10.367-6.598-7.821-1.696-17.152-3.769-17.152-13.945 0-7.445 6.409-13.855 17.907-13.855 7.726 0 13.569 2.734 17.716 6.41l-4.147 6.973c-2.732-3.111-7.823-5.467-13.476-5.467-5.184 0-8.481 1.884-8.481 5.09 0 3.486 4.522 4.712 9.896 5.937 7.914 1.695 17.621 3.959 17.621 14.7 0 8.011-6.691 14.136-18.943 14.136-7.726 0-14.793-2.449-19.506-7.068l4.524-7.161ZM506.371 188.853c-3.299 3.676-8.953 7.162-16.115 7.162-9.801 0-14.606-5.088-14.606-14.418v-32.229h9.894v28.648c0 7.068 3.58 9.236 9.14 9.236 4.995 0 9.33-2.828 11.687-5.937v-31.947h9.895v45.516h-9.895v-6.031ZM527.196 132.027h9.896v62.858h-9.896v-62.858ZM550.003 184.33v-26.293h-7.539v-8.67h7.539v-12.44h9.896v12.44h9.236v8.67h-9.236v23.842c0 3.111 1.508 5.372 4.334 5.372 1.886 0 3.676-.753 4.43-1.602l2.356 7.445c-1.791 1.697-4.712 2.921-9.33 2.921-7.633 0-11.686-4.146-11.686-11.685ZM576.201 149.367h9.895v45.518h-9.895v-45.518Zm-1.225-13.665c0-3.392 2.828-6.124 6.125-6.124a6.113 6.113 0 0 1 6.126 6.124 6.114 6.114 0 0 1-6.126 6.126c-3.297 0-6.125-2.733-6.125-6.126ZM627.75 166.425c0-7.068-3.583-9.424-9.141-9.424-5.09 0-9.424 3.015-11.686 6.125v31.759h-9.896v-45.517h9.896v6.22c3.016-3.582 8.858-7.352 16.022-7.352 9.8 0 14.7 5.277 14.7 14.606v32.043h-9.895v-28.46ZM680.523 163.127c-2.168-3.394-7.069-6.127-11.686-6.127-7.822 0-12.816 5.843-12.816 14.607 0 8.765 4.994 14.608 12.816 14.608 4.617 0 9.518-2.732 11.686-6.126v-16.962Zm-27.894 36.281c3.674 4.241 8.386 5.843 14.418 5.843 6.503 0 13.476-3.016 13.476-12.346v-5.466c-3.486 4.524-8.67 7.54-14.608 7.54-11.59 0-20.166-8.387-20.166-23.372 0-14.7 8.481-23.371 20.166-23.371 5.748 0 10.932 2.64 14.608 7.445v-6.313h9.895v43.161c0 16.398-12.156 20.827-23.371 20.827-7.728 0-13.477-1.697-19.037-6.787l4.619-7.161Z"/></svg>
